public/assets/logos/software/django.svg

<svg fill="none" height="10" viewBox="0 0 10 10" width="10" xmlns="http://www.w3.org/2000/svg" xmlns:xlink="http://www.w3.org/1999/xlink"><clipPath id="a"><path d="m1.074 0h7.852v10h-7.852z"/></clipPath><g clip-path="url(#a)" fill="#2ba977"><path d="m4.59484 0h1.63414v7.4898c-.83704.15832-1.45323.22062-2.11995.22062-1.99588-.00209-3.03483-.89375-3.03483-2.60625 0-1.65 1.10204-2.72084 2.80979-2.72084.26501 0 .46689.02085.71085.08333zm.05727 3.81641c-.19139-.06251-.34911-.08334-.55102-.08334-.82652 0-1.30393.50416-1.30393 1.38769 0 .86023.4564 1.33521 1.29344 1.33521.18084 0 .32806-.01018.56151-.04144z"/><path d="m8.90102 2.58441v3.75004c0 1.29144-.09674 1.91248-.38067 2.44792-.26501.51477-.61411.83937-1.33548 1.19789l-1.51636-.71456c.72137-.33525 1.07048-.63147 1.29343-1.08355.23341-.46228.30703-.99772.30703-2.40605v-3.19166zm-1.79673-2.58441h1.63414v1.66042h-1.63414z"/></g></svg>

<svg width="10" height="10" viewBox="0 0 10 10" fill="none" xmlns="http://www.w3.org/2000/svg">
<g clip-path="url(#clip0_9_27)">
<path d="M4.59484 0H6.22898V7.4898C5.39194 7.64812 4.77575 7.71042 4.10903 7.71042C2.11315 7.70833 1.0742 6.81667 1.0742 5.10417C1.0742 3.45417 2.17624 2.38333 3.88399 2.38333C4.149 2.38333 4.35088 2.40418 4.59484 2.46666V0ZM4.65211 3.81641C4.46072 3.7539 4.303 3.73307 4.10109 3.73307C3.27457 3.73307 2.79716 4.23723 2.79716 5.12076C2.79716 5.98099 3.25356 6.45597 4.0906 6.45597C4.27144 6.45597 4.41866 6.44579 4.65211 6.41453V3.81641Z" fill="#2BA977"/>
<path d="M8.90102 2.58441V6.33445C8.90102 7.62589 8.80428 8.24693 8.52035 8.78237C8.25534 9.29714 7.90624 9.62174 7.18487 9.98026L5.66851 9.2657C6.38988 8.93045 6.73899 8.63423 6.96194 8.18215C7.19535 7.71987 7.26897 7.18443 7.26897 5.7761V2.58444L8.90102 2.58441ZM7.10429 0H8.73843V1.66042H7.10429V0Z" fill="#2BA977"/>
</g>
<defs>
<clipPath id="clip0_9_27">
<rect width="7.852" height="10" fill="white" transform="translate(1.074)"/>
</clipPath>
</defs>
</svg>
